assets/Diamond with a dot/Flat/diamond_with_a_dot_flat.svg

<svg width="32" height="32" viewBox="0 0 32 32" fill="none" xmlns="http://www.w3.org/2000/svg">
<path d="M11.7574 8.92894C10.9763 9.70999 10.9763 10.9763 11.7574 11.7574L14.9394 14.9393C15.5251 15.5251 16.4749 15.5251 17.0607 14.9393L20.2427 11.7574C21.0237 10.9763 21.0237 9.70999 20.2427 8.92894L17.0607 5.74696C16.4749 5.16117 15.5251 5.16117 14.9394 5.74696L11.7574 8.92894Z" fill="#00A6ED"/>
<path d="M5.74696 14.9394C5.16117 15.5251 5.16117 16.4749 5.74696 17.0607L8.92894 20.2427C9.70999 21.0237 10.9763 21.0237 11.7574 20.2427L14.9393 17.0607C15.5251 16.4749 15.5251 15.5251 14.9394 14.9393L11.7574 11.7574C10.9763 10.9763 9.70999 10.9763 8.92894 11.7574L5.74696 14.9394Z" fill="#00A6ED"/>
<path d="M11.7574 20.2427C10.9763 21.0237 10.9763 22.29 11.7574 23.0711L14.9394 26.2531C15.5251 26.8389 16.4749 26.8389 17.0607 26.2531L20.2427 23.0711C21.0237 22.29 21.0237 21.0237 20.2427 20.2427L17.0607 17.0607C16.4749 16.4749 15.5251 16.4749 14.9393 17.0607L11.7574 20.2427Z" fill="#00A6ED"/>
<path d="M17.0607 17.0607C16.4749 16.4749 16.4749 15.5251 17.0607 14.9393L20.2427 11.7574C21.0237 10.9763 22.29 10.9763 23.0711 11.7574L26.2531 14.9394C26.8389 15.5251 26.8389 16.4749 26.2531 17.0607L23.0711 20.2427C22.29 21.0237 21.0237 21.0237 20.2427 20.2427L17.0607 17.0607Z" fill="#00A6ED"/>
<path d="M18 16C18 17.1046 17.1046 18 16 18C14.8954 18 14 17.1046 14 16C14 14.8954 14.8954 14 16 14C17.1046 14 18 14.8954 18 16Z" fill="#26C9FC"/>
</svg>

<svg xmlns="http://www.w3.org/2000/svg" width="32" height="32" fill="none"><path fill="#00A6ED" d="M11.757 8.929a2 2 0 0 0 0 2.828l3.182 3.182a1.5 1.5 0 0 0 2.122 0l3.182-3.182a2 2 0 0 0 0-2.828L17.06 5.747a1.5 1.5 0 0 0-2.122 0l-3.182 3.182Z"/><path fill="#00A6ED" d="M5.747 14.94a1.5 1.5 0 0 0 0 2.12l3.182 3.183a2 2 0 0 0 2.828 0l3.182-3.182a1.5 1.5 0 0 0 0-2.122l-3.182-3.182a2 2 0 0 0-2.828 0L5.747 14.94Z"/><path fill="#00A6ED" d="M11.757 20.243a2 2 0 0 0 0 2.828l3.182 3.182a1.5 1.5 0 0 0 2.122 0l3.182-3.182a2 2 0 0 0 0-2.828L17.06 17.06a1.5 1.5 0 0 0-2.122 0l-3.182 3.182Z"/><path fill="#00A6ED" d="M17.06 17.06a1.5 1.5 0 0 1 0-2.12l3.183-3.183a2 2 0 0 1 2.828 0l3.182 3.182a1.5 1.5 0 0 1 0 2.122l-3.182 3.182a2 2 0 0 1-2.828 0L17.06 17.06Z"/><path fill="#26C9FC" d="M18 16a2 2 0 1 1-4 0 2 2 0 0 1 4 0Z"/></svg>
